svg/crimsonFungusSpots.svg

<?xml version="1.0" encoding="UTF-8" standalone="no"?>
<!-- Created with Inkscape (http://www.inkscape.org/) -->

<svg
   width="32"
   height="32"
   viewBox="0 0 8.4666666 8.4666668"
   version="1.1"
   id="svg5"
   inkscape:version="1.2 (dc2aeda, 2022-05-15)"
   sodipodi:docname="fungusSpots1.svg"
   xmlns:inkscape="http://www.inkscape.org/namespaces/inkscape"
   xmlns:sodipodi="http://sodipodi.sourceforge.net/DTD/sodipodi-0.dtd"
   xmlns="http://www.w3.org/2000/svg"
   xmlns:svg="http://www.w3.org/2000/svg"
   xmlns:rdf="http://www.w3.org/1999/02/22-rdf-syntax-ns#"
   xmlns:cc="http://creativecommons.org/ns#">
  <sodipodi:namedview
     id="namedview7"
     pagecolor="#ffffff"
     bordercolor="#111111"
     borderopacity="1"
     inkscape:pageshadow="0"
     inkscape:pageopacity="0"
     inkscape:pagecheckerboard="1"
     inkscape:document-units="mm"
     showgrid="true"
     width="32mm"
     units="px"
     objecttolerance="10000"
     guidetolerance="10000"
     inkscape:snap-perpendicular="true"
     inkscape:snap-tangential="true"
     inkscape:zoom="34.90625"
     inkscape:cx="11.774396"
     inkscape:cy="16.186213"
     inkscape:window-width="2560"
     inkscape:window-height="1412"
     inkscape:window-x="0"
     inkscape:window-y="28"
     inkscape:window-maximized="0"
     inkscape:current-layer="layer1"
     inkscape:showpageshadow="0"
     inkscape:deskcolor="#d1d1d1">
    <inkscape:grid
       type="xygrid"
       id="grid9"
       units="px"
       empspacing="4" />
  </sodipodi:namedview>
  <defs
     id="defs2" />
  <g
     inkscape:label="Layer 1"
     inkscape:groupmode="layer"
     id="layer1">
    <path
       id="path4989"
       style="fill:#000000;fill-opacity:0.996078;stroke:none;stroke-width:0.264583"
       d="M 4.2333333 4.2333333 A 2.1166665 2.1166665 0 0 0 3.7088175 4.3005127 A 0.52916664 0.52916664 0 0 0 4.2333333 4.7625 A 0.52916664 0.52916664 0 0 0 4.7583659 4.2994792 A 2.1166665 2.1166665 0 0 0 4.2333333 4.2333333 z " />
    <path
       id="circle21446"
       style="fill:#000000;stroke-width:0"
       d="M 6.0668132 5.2921834 A 0.52916664 0.52916664 0 0 0 5.55625 5.8208333 A 0.52916664 0.52916664 0 0 0 6.0854167 6.35 L 6.35 6.35 A 2.1166665 2.1166665 0 0 0 6.0668132 5.2921834 z " />
    <path
       id="path21462"
       style="fill:#000000;stroke-width:0"
       d="M 2.3998533,5.2921834 A 0.52916664,0.52916664 0 0 1 2.9104164,5.8208333 0.52916664,0.52916664 0 0 1 2.3812498,6.35 H 2.1166665 A 2.1166665,2.1166665 0 0 1 2.3998533,5.2921834 Z" />
  </g>
  <metadata
     id="metadata33">
    <rdf:RDF>
      <cc:Work
         rdf:about="">
        <cc:license
           rdf:resource="http://creativecommons.org/licenses/by-sa/4.0/" />
      </cc:Work>
      <cc:License
         rdf:about="http://creativecommons.org/licenses/by-sa/4.0/">
        <cc:permits
           rdf:resource="http://creativecommons.org/ns#Reproduction" />
        <cc:permits
           rdf:resource="http://creativecommons.org/ns#Distribution" />
        <cc:requires
           rdf:resource="http://creativecommons.org/ns#Notice" />
        <cc:requires
           rdf:resource="http://creativecommons.org/ns#Attribution" />
        <cc:permits
           rdf:resource="http://creativecommons.org/ns#DerivativeWorks" />
        <cc:requires
           rdf:resource="http://creativecommons.org/ns#ShareAlike" />
      </cc:License>
    </rdf:RDF>
  </metadata>
</svg>

<svg width="32" height="32" viewBox="0 0 8.467 8.467" xmlns="http://www.w3.org/2000/svg"><path style="fill:#000;fill-opacity:.996078;stroke:none;stroke-width:.264583" d="M4.233 4.233a2.117 2.117 0 0 0-.524.068.53.53 0 0 0 .524.462.53.53 0 0 0 .525-.464 2.117 2.117 0 0 0-.525-.066z"/><path style="fill:#000;stroke-width:0" d="M6.067 5.292a.53.53 0 0 0-.51.529.53.53 0 0 0 .528.529h.265a2.117 2.117 0 0 0-.283-1.058zM2.4 5.292a.53.53 0 0 1 .51.529.53.53 0 0 1-.529.529h-.264A2.117 2.117 0 0 1 2.4 5.292Z"/></svg>
